X:1
T:Three Harks
B:Ian Russell,Come Sing for the Season, Sheffield, 1995
C: Arr. Ian Russell, http://www.sgpublishing.co.uk/gm/vc/vcabout.html
Z:Ian Russell
Q:1/4=86     %Tempo
V:1  clef=treble name="Soprano"
M:2/4     %Meter
L:1/16     %
K:G
G4 A4 |B8 |B2G2 e2d2 |c4 B4 | A8 |
w:Hark! Hark! Hark! Hark the he-rald an-gels sing,
(d3c) B4 |(d3c) B4 |d2d2 d2e2 | d4 ^c4 |d8 |
w:Glor-*y! Glo-*ry! Glo-ry to the  new-born King!
d4 c4 |B4(c2d2) | e4 A4 |(G4F4) |
w: Peace on earth and_ mer-cy mild_
B2B2 B2B2 |c2c2 c4 | A2A2 A2A2 |B2B2 B4 |
w:Peace on earth and mer-cy mild, God and sin-ners re-con-ciled,
d2c2 B2c2 |(BAGeB2)A2 | B4 A4 |G8 |]
w: God__ and sin-****ners re-con-ciled.
V:2  clef=treble anme="Alto"
M:2/4     %Meter
L:1/16     %
K:G
D4 F4 |G8 |G2G2 G2G2 |F4 G4 |
F8 |(B3A) G4 |(B3A) G4 |G2G2 G2G2 |
F4 E2G2 |F8 | z8 |z8 |z8 |z8 |
G2G2 G2G2 |G2G2 G4 |F2F2 F2F2 |G2G2 G4 |
B2A2 G2A2 |G6 G2 |G4 F4 |G8 |]
V:3 clef=bass name="Tenor"
M:2/4     %Meter
L:1/16     %
K:G
B,4 D4 |D8 |D2D2 C2D2 |D4 D4 |
D8 |D4 D4 |D4 D4 |B,2B,2 B,2B,2 |
A,4 A,4 |A,8 |B,4 A,4 |G,4 (A,2B,2) |
C4 (D2C2) |(B,2CB,A,4) |D2D2 D2D2 |E2E2 E4 |
D2D2 D2D2 |D2D2 D4 |D6 D2 |(DCB,CD2)D2 |
D4 D2C2 |B,8 |]
V:4  clef=bass name="Bass"
M:2/4     %Meter
L:1/16     %
K:G
G,4 C,4 |G,8 |G,2B,2 C2B,2 |A,4 G,4 |
D,8 |G,4 G,4 |G,4 G,4 |G,2G,2 G,2E,2 |
A,4 A,,4 |D,8 |z8 |z8 | z8 | z8 |
G,2G,2 (G,F,)(E,D,) |C,2C,2 (C,D,E,C,) |D,2D,2 (D,E,)(F,D,) |G,2G,2 G,4 |
G,6 F,2 |G,4 B,,2C,2 |D,4 D,4 |G,,8 |]
     %End of file
